!!!!SEGMENT: sonata42-3.krn
!!!COM: Haydn, Franz Joseph
!!!CDT: 1732/03/31/-1809/05/31/
!!!CNT: Austrian
!!!OTL: Sonata No. 42 in G major
!!!SCT: Hob. XVI:27
!!!OMV: 3
!!!OMD: Presto.
!!!ODT: ~1774-1776
**kern	**kern	**dynam
*staff2	*staff1	*staff1/2
*Ipiano	*Ipiano	*Ipiano
*>[A,A,B,B,C,C,D,D,E,E,F,F,G]	*>[A,A,B,B,C,C,D,D,E,E,F,F,G]	*>[A,A,B,B,C,C,D,D,E,E,F,F,G]
*>norep[A,B,C,D,E,F,G]	*>norep[A,B,C,D,E,F,G]	*>norep[A,B,C,D,E,F,G]
*>A	*>A	*>A
*clefF4	*clefG2	*clefG2
*k[f#]	*k[f#]	*k[f#]
*G:	*G:	*G:
*M2/4	*M2/4	*M2/4
*MM144	*MM144	*MM144
8r	8d`>	mf
=1	=1	=1
4G 4B	(8gL	.
.	8b	.
8r	8dd	.
(8B 8d	8gJ	.
=2	=2	=2
4A 4c)	4g	>
.	.	]
4r	8f#L)	.
.	8d`>J	.
=3	=3	=3
4r	(8aL	.
.	8cc	.
8r	8ee	.
(8F#	8a 8ccJ	.
=4	=4	=4
4G	4a 4cc	>
.	.	]
8GG)	8g 8b)	.
8r	8b`	.
*clefG2	*	*
=5	=5	=5
4g	(8bbL	.
.	8gg	.
8r	8dd#	.
(8g	8eeJ	.
=6	=6	=6
4f#)	8aaL	.
.	8ff#	.
8r	8cc#	.
((8f#	8ddnJ	.
=7	=7	=7
4g	8ee	.
.	4gg	.
4a)	.	.
.	8cc#	.
*clefF4	*	*
=8	=8	=8
!	!LO:MOR:acc=none	!
(4d)	4dd)w	.
8D)	8r	.
!!LO:LB:g=z
=:|!|:	=:|!|:	=:|!|:
*>B	*>B	*>B
8r	8d`	p
=9	=9	=9
2r	(8ddL	.
.	8b	.
.	8g#	.
.	8eJ	.
=10	=10	=10
8r	4d	.
(8G#L	.	.
8A)	8c#L)	.
8AA`J	8cn`J	.
=11	=11	=11
2r	(8ccL	.
.	8a	.
.	8f#	.
.	8dJ	.
=12	=12	=12
8r	4c	.
(8F#L	.	.
8GJ)	8B)	.
8BB`	8d`	.
=13	=13	=13
4C	(8eL	<
.	8g#	.
8r	8a	.
(8c#	8gnJ	.
=14	=14	=14
4d)	8f#L	.
.	8a#	.
8r	8b	.
(8d#	8anJ	.
=15	=15	=15
8eL	8gL>	.
8f#	8dd	.
8g	8cc	.
8c#J	8bJ	.
=16	=16	=16
[4dn	(4g) 4b	.
8d])	8f#) 8a	.
8r	8d`	.
!!LO:LB:g=z
=17	=17	=17
!	!	!LO:DY:rj:c
4G 4B	(8gL	mf
.	8b	.
8r	8dd	.
(8B 8d	8gJ	.
=18	=18	=18
4A )4c	4g	.
4r	8f#L)	.
.	8d`J	.
=19	=19	=19
4r	(8aL	.
.	8cc	.
8r	8ee	.
(8F#	8a 8ccJ	.
=20	=20	=20
4G	4a 4cc	>
.	.	]
8GG)	8g 8b)	.
8r	8g`	.
=21	=21	=21
4r	(8ccL	<
.	8ee	.
8r	8gg	.
(8c	8eeJ	.
=22	=22	=22
4B)	8cc#L	.
.	8dd	.
8r	8gg	.
(8G	8bbJ	.
=23	=23	=23
4c)	8dd#L	.
.	8ee	.
8r	8ccc)	.
8D`	8cc` 8ff#`J	.
=24	=24	=24
(4G	4b 4gg	.
8GG)	8r	.
!!LO:LB:g=z
=:|!|:	=:|!|:	=:|!|:
*>C	*>C	*>C
8r	8d`	mf
=25	=25	=25
4G 4B	(16gLL	.
.	16d	.
.	16b	.
.	16gJJ	.
8r	8dd`L>)	.
8B 8d	8g`J	.
=26	=26	=26
4A 4c	(4g	.
4r	8f#`L)	.
.	8a`J	.
=27	=27	=27
4r	(8ccL	.
.	8cc 8ee	.
8r	8b 8dd	.
(8F#	8a 8ccJ	.
=28	=28	=28
4G	4a 4cc	>
.	.	]
8GG)	8g 8b)	.
8r	8b`	.
=29	=29	=29
4g	(16bbLL	f
.	16gg	.
.	16ff#	.
.	16eeJJ	.
4r	16dd#LL	.
.	16ee	.
.	16dd#	.
.	16eeJJ	.
=30	=30	=30
4f#	16aaLL	.
.	16ff#	.
.	16ee	.
.	16ddnJJ	.
4r	16cc#LL	.
.	16dd	.
.	16cc#	.
.	16ddJJ	.
=31	=31	=31
8g	(8bL)	.
8r	8ggJ)	.
8A	8r	.
8r	8g` 8cc#`	.
=32	=32	=32
(16DLL	4f# 4dd	.
16F#	.	.
16A	.	.
16dJJ	.	.
8D)	8r	.
!!LO:LB:g=z
=:|!|:	=:|!|:	=:|!|:
*>D	*>D	*>D
8r	8d`	mf
=33	=33	=33
4r	(16ddLL	.
.	16b	.
.	16a	.
.	16bJJ	.
8r	8eL)	.
8G# 8d	8b`J	.
=34	=34	=34
[4A (4d	(4b	.
8A] 8c)	8ccL)	.
8r	8c`J	.
=35	=35	=35
4r	(16ccLL	.
.	16a	.
.	16g	.
.	16aJJ	.
8r	8dL)	.
8F# 8c	8a`J	.
=36	=36	=36
[4G (4c	(4a	.
8G] 8B)	8b/)	.
(8B	8g`	.
=37	=37	=37
4c)	(16f#LL	<
.	16e	.
.	16d#	.
.	16eJJ	.
8r	4a)	.
(8c#	.	.
=38	=38	=38
4d)	(16gLL	.
.	16f#	.
.	16e#	.
.	16f#JJ	.
8r	4b/)	.
(8d#	.	.
=39	=39	=39
8eL	(8gL>	.
8f#	8dd	.
8g	8cc	.
8c#J	8bJ	.
=40	=40	=40
[4d)	4g 4b	.
8d]	)8f# 8a	.
8r	8d`	.
!!LO:LB:g=z
=41	=41	=41
4G 4B	(16gLL	.
.	16d	.
.	16b	.
.	16gJJ	.
8r	8ddL>)	.
8B 8d	8g`>J	.
=42	=42	=42
4A 4c	(4g	.
4r	8f#L)	.
.	8a`J	.
=43	=43	=43
4r	(8ccL	.
.	8cc 8ee	.
8r	8b 8dd	.
(8F#	8a 8ccJ	.
=44	=44	=44
4G	4a 4cc	.
8GG)	8g 8b)	.
8r	8g`	.
=45	=45	=45
4C 4c	(16eeLL	f
.	16dd#	.
.	16ee	.
.	16ff#JJ	.
4r	16ggLL	.
.	16ee	.
.	16ddn	.
.	16ccJJ	.
=46	=46	=46
4BB 4B	8ddL	.
.	16ggL	.
.	16bbJJ	.
4r	8ddd`)	>
.	(8b 8dd	.
=47	=47	=47
.	(16qqb/ 16qqdd/P	.
(4c	8a/ 8cc/p)	.
.	4g 4b	.
4d	.	.
.	8f# 8a	.
=48	=48	=48
4G)	4g)	.
8r	8r	.
!!LO:LB:g=z
=:|!|:	=:|!|:	=:|!|:
*>E	*>E	*>E
8r	8dd`	f
=49	=49	=49
4G 4B	(16ggLL	.
.	16ff#	.
.	16ee	.
.	16ddJJ	.
4r	16ccLL	.
.	16b	.
.	16a	.
.	16gJJ	.
=50	=50	=50
8A` 8c`L	16f#LL	.
.	16d	.
8G` 8B`	16g	.
.	16dJJ	.
8F#` 8A`	16aLL	.
.	16d	.
8E` 8G`J	16b	.
.	16dJJ	.
=51	=51	=51
4D 4F#	(16ccLL)	.
.	16b	.
.	16a	.
.	16gJJ	.
4r	16f#LL	.
.	16e	.
.	16d	.
.	16cJJ	.
=52	=52	=52
16r	4B)	.
(16GGLL	.	.
16BB	.	.
16DJJ	.	.
4G)	8r	.
.	8b`	.
=53	=53	=53
8g`L	(16bbLL	.
.	16b	.
8f#`	16aa	.
.	16bJJ	.
8e`	16ggLL	.
.	16b	.
8d#`J	16ff#	.
.	16bJJ	.
=54	=54	=54
8e`L	16ggLL	.
.	16b	.
8dn`	16gg#	.
.	16bJJ	.
8c#`	16aaLL	.
.	16a	.
8e`J	16ggn	.
.	16aJJ	.
!!LO:LB:g=z
=55	=55	=55
8d`L	16ff#LL	.
.	16a	.
8G`	16gg	.
.	16eeJJ	.
8A`	16ff#LL	.
.	16dd	.
8AA`J	16ee	.
.	16cc#JJ	.
=56	=56	=56
8D`L	4.dd)	.
8AA`	.	.
8DD`J	.	.
8r	8r	.
=57:|!|:	=57:|!|:	=57:|!|:
*>F	*>F	*>F
8r	8dd`	.
*clefG2	*	*
=58	=58	=58
8b`L	(16dddLL	.
.	16dd	.
8a`	16cccn	.
.	16ddJJ	.
8g#`	8bb`L)	.
8ddJ	(16gg#L	.
.	16eeJJ	.
=59	=59	=59
8cc`L	16aaLL	.
.	16ee	.
8b`	16bb	.
.	16eeJJ	.
8a`J	8ccc`L)	.
8r	8cc`J	.
=60	=60	=60
8a`L	(16cccLL	.
.	16cc	.
8g`	16bb	.
.	16ccJJ	.
8f#`	8aa`L)	.
8cc`J	(16ff#L	.
.	16ddJJ	.
=61	=61	=61
8b`L	16ggLL	.
.	16dd	.
8a`	16aa	.
.	16ddJJ	.
8g`J	8bb`)	.
8B`	(16ddLL	mf
.	16gJJ	.
=62	=62	=62
8c`L	16eeLL	.
.	16g	.
8d`	16ffn	.
.	16gJJ	.
8c`	8ee`)	.
8c#`J	(16eeLL	.
.	16aJJ	.
!!LO:LB:g=z
=63	=63	=63
8d`L	16ff#LL	.
.	16a	<
8e`	16gg	.
.	16aJJ	.
8d`	8ff#`L)	.
8d#`J	(16ff#L	.
.	16bJJ	.
=64	=64	=64
4e	16ggLL	.
.	16b	.
.	16cc	.
.	16aaJJ)	.
(8f#L	(8ccL	.
8gJ	8bJ	.
=65	=65	=65
)[4d 4g	4bt	>
.	.	]
8d] 8f#	8a)	.
8r	8dd`	.
*clefF4	*	*
=66	=66	=66
4G 4B	(16ggLL	f
.	16ff#	.
.	16ee	.
.	16ddJJ	.
4r	16ccLL	.
.	16b	.
.	16a	.
.	16gJJ	.
=67	=67	=67
8A` 8c`L	16f#LL	.
.	16d	.
8G` 8B`	16g	.
.	16dJJ	.
8F#` 8A`	16aLL	.
.	16d	.
8E` 8G`J	16b	.
.	16dJJ	.
=68	=68	=68
4D 4F#	(16ccLL)	.
.	16b	.
.	16a	.
.	16gJJ	.
4r	16f#LL	.
.	16e	.
.	16d	.
.	16cJJ	.
=69	=69	=69
8GG`L	16BLL	.
.	16G	.
8AA`	16c	.
.	16GJJ	.
8BB`	16dLL	.
.	16G	.
8GG`J	16B	.
.	16GJJ	.
!!LO:LB:g=z
=70	=70	=70
8C`L	16eLL	.
.	16G	.
8BB`	16d#	.
.	16GJJ	.
8C`	16eLL	.
.	16G	.
8AA`J	16f#	.
.	16GJJ	.
=71	=71	=71
4BB	16gLL	.
.	16f#	.
.	16e	.
.	16dnJJ	.
4r	16cLL	.
.	16B	.
.	16A	.
.	16GJJ	.
=72	=72	=72
8r	8AL)	.
8C`L	(16cL	.
.	16AJJ)	.
8D`	(16BLL	.
.	16G)	.
8DD`J	(16A	.
.	16F#JJ)	.
=73	=73	=73
8GG`L	4G	.
8DD`	.	.
8GGG`J	8r	.
=:|!	=:|!	=:|!
*>G	*>G	*>G
8r	8d`	mf
=74	=74	=74
4r	(8gL	.
.	8b	.
8r	8dd	.
!	!	!LO:DY:b=2:rj
(8B 8d	8gJ	mf
=75	=75	=75
4A 4c)	4g	.
4r	8f#L)	.
.	8d`J	.
=76	=76	=76
4r	(8aL	.
.	8cc	.
8r	8ee	.
(8F#	8a 8ccJ	.
=77	=77	=77
4G	4a 4cc	.
8GG)	8g 8b)	.
8r	8b`	.
*clefG2	*	*
!!LO:LB:g=z
=78	=78	=78
4g	(8bbL	.
.	8gg	.
8r	8dd#	.
(8g	8eeJ	.
=79	=79	=79
4f#)	8aaL	.
.	8ff#	.
8r	8cc#	.
(8f#	8ddnJ	.
=80	=80	=80
4g	8ee	.
.	4gg	.
4a	.	.
.	8cc#	.
*clefF4	*	*
=81	=81	=81
()4d	4dd)	.
8D)	8r	p
8r	8d`	.
=82	=82	=82
4r	(8gL<	.
.	8b-	.
8r	8dd	.
(8B- 8d	8gJ	.
=83	=83	=83
4A 4c)	4g	.
4r	8f#L)	.
.	8d`J	.
=84	=84	=84
2r	(8aL	.
.	8cc	.
.	8ee-	.
.	8a 8ccJ	.
=85	=85	=85
8r	4a 4cc	.
(8F#	.	.
4G)	8g 8b-)	.
.	8g`	.
=86	=86	=86
4r	(8b-L	<
.	8dd	.
8r	8ee-	.
*clefG2	*	*
(8g	8bb-J	.
=87	=87	=87
)4fn	8aaL	.
.	8cc#	.
8r	8dd)	.
(8f	8ffn (8aaJ	.
!!LO:LB:g=z
=88	=88	=88
4g	8ee 8gg	.
.	4dd 4ffn	.
4a	.	.
.	8cc# 8ee	>
*clefF4	*	*
=89	=89	=89
()4d	4dd)	]
8D)	8r	.
8r	8dd`	mf
=90	=90	=90
2r	(8ffnL	.
.	8a-	.
.	8g	.
.	8ddJ	.
=91	=91	=91
8r	4fn	.
(8BnL	.	.
8cJ)	8e-L)	.
8r	8ee-`J	.
=92	=92	=92
8r	(4g	.
(8c#L	.	.
8dJ)	8f#XL)	.
8r	8aa`J	.
=93	=93	=93
8r	(4cc	.
(8f#XL	.	.
8gJ)	8b-L)	.
8r	8dd`J	.
=94	=94	=94
2r	(8ee-L	<
.	8gg	.
.	8bb-	.
.	8ddJ	.
=95	=95	=95
8r	4cc#	.
(8GL	.	.
8F#)	8ddL)	.
8f#`J	8ccn`J	.
=96	=96	=96
(8gL	(8b-L	.
8B-)	8g)	>
(8c	(8a	.
8dJ)	8f#J)	.
=97	=97	=97
(8GL	4g	]
8D	.	.
8GGJ)	8r	.
8r	8dd`	.
!!LO:LB:g=z
=98	=98	=98
2r	(8ffnL	p
.	8a-	.
.	8g	.
.	8ddJ	.
=99	=99	=99
8r	4fn	.
(8BnL	.	.
8cJ)	8e-L)	.
8r	8ee-`J	.
=100	=100	=100
8r	(4g	.
(8c#L	.	.
8dJ)	8f#L)	.
8r	8aa`J	.
=101	=101	=101
8r	(4cc	.
(8f#XL	.	.
8gJ)	8b-L)	.
8r	8dd`J	<
=102	=102	=102
2r	(8ee-L	.
.	8gg	.
.	8bb-	.
.	8ddJ	[
=103	=103	=103
8r	4cc#	.
(8GL	.	.
8F#)	8ddL)	.
8f#`J	8ccn`J	.
=104	=104	=104
(8gL	(8b-L	.
8B-)	8g)	>
(8c	(8a	.
8dJ)	8f#J)	.
=105	=105	=105
(8GL	4g	]
8D	.	.
8GGJ)	8r	.
8r	8d`>	f
=106	=106	=106
(16GLL	8g`L	.
16d	.	.
16Bn	8bn`	.
16dJJ	.	.
16GLL	8dd`	.
16d	.	.
16B	8g`J	.
16dJJ	.	.
!!LO:LB:g=z
=107	=107	=107
16ALL	(>4g	.
16d	.	.
16c	.	.
16dJJ	.	.
16ALL	)8f#L	.
16d	.	.
16c	8a`J	.
16dJJ	.	.
=108	=108	=108
(16F#LL)	8cc`L	.
16d	.	.
16A	8ff#`	.
16dJJ	.	.
16F#LL	8aa`	.
16d	.	.
16A	8cc`J	.
16dJJ	.	.
=109	=109	=109
16GLL	(4cc	.
16d	.	.
16B	.	.
16dJJ	.	.
16GLL	8bL)	.
16d	.	.
16B	8b`J	.
16dJJ	.	.
=110	=110	=110
(16GLL)	8bb`L	.
16e	.	.
16B	8gg`	.
16eJJ	.	.
16GLL	(8dd#	.
16e	.	.
16B	8eeJ)	.
16eJJ	.	.
=111	=111	=111
16F#LL	8aa`L	.
16d	.	.
16A	8ff#`	.
16dJJ	.	.
16F#LL	(8cc#	.
16d	.	.
16A	8ddnJ)	.
16dJJ	.	.
=112	=112	=112
(4G)	(8eeL	.
.	8ggJ)	.
4A	8r	.
.	8g 8cc#	.
!!LO:LB:g=z
=113	=113	=113
(16DLL)	4f# 4dd	.
16F#	.	.
16A	.	.
16dJJ	.	.
8D`)	8r	.
>16g>LL	8rccc	.
16b>JJ	.	.
=114	=114	=114
2re>	16ddLL>	p
.	16gg	.
.	16bb	.
.	16dddJJ	.
.	16cccLL>	.
.	16bb	.
.	16aa	.
.	16ggJJ	.
=115	=115	=115
!	!	!LO:HP:a
[4d> (4b>	4gg	>
8d>] 8a>)	8ff#	]
8r>	N16cccLL	.
.	16aaJJ	.
=116	=116	=116
8re>	16ff#LL	.
.	16ccJJ	.
16a>LL	8rff	.
16f#>JJ	.	.
8d>`L	8raa	.
8f#>J	8a 8dd	.
=117	=117	=117
!	!	!LO:HP:a
(4g>	4a (4cc	>
8G)	8g 8b)	]
8r	8b`	.
=118	=118	=118
4GG 4G	(16bbLL	mf
.	16gg	.
.	16ff#	.
.	16eeJJ	.
8r	16dd#LL	.
.	16ee	.
(8G	16bb	.
.	16ggJJ	.
=119	=119	=119
4F#	16aaLL	.
.	16gg	.
.	16ff#	.
.	16eeJJ	.
4G	16ddnLL	.
.	16cc#	.
.	16b	.
.	16aJJ	.
!!LO:LB:g=z
=120	=120	=120
4A	16gLL	.
.	16f#	.
.	16e	.
.	16dJJ	.
4AA	16c#LL	.
.	16B	.
.	16A	.
.	16GJJ	.
=121	=121	=121
4D	4F#)	.
8DD)	8r	.
8r	8dd`	.
=122	=122	=122
16G#LL	8ddd`L	f
16e	.	.
16B	8bb`	.
16eJJ	.	.
16G#LL	8gg#`	.
16e	.	.
16B	8ee`J	.
16eJJ	.	.
=123	=123	=123
16ALL	(4dd	.
16e	.	.
16c#	.	.
16eJJ	.	.
16ALL	8cc#L)	.
16e	.	.
16cn	8ccn`J	.
16eJJ	.	.
=124	=124	=124
16F#LL	8ccc`L	.
16d	.	.
16A	8aa`	.
16dJJ	.	.
16F#LL	8ff#`	.
16d	.	.
16A	8dd`J	.
16dJJ	.	.
=125	=125	=125
16GLL	(4cc	.
16d	.	.
16B	.	.
16dJJ	.	.
16GLL	8bL)	.
16d	.	.
16B	8dd`J	.
16dJJ	.	.
!!LO:LB:g=z
=126	=126	=126
4c	(16eeLL	mf
.	16cc	.
.	16b	.
.	16aJJ	.
8r	16g#LL<	.
.	16a	.
(8c	16ee	.
.	16aJJ	.
=127	=127	=127
4d)	16ff#LL	.
.	16dd	.
.	16cc	.
.	16bJJ	.
8r	16a#LL	.
.	16b	.
(8d	16ff#	.
.	16bJJ	.
=128	=128	=128
4e	16ggLL	.
.	16ee	.
.	16dd	.
.	16ccJJ	.
8f#L	16aaLL	.
.	16cc	.
8gJ	16gg	.
.	16bJJ	.
=129	=129	=129
*^	*	*
4g	4.d	4bt	.
8f#)	.	8a)	.
8r	8r	8d`>	.
*v	*v	*	*
=130	=130	=130
(16GLL	8g`L	f
16d	.	.
16B	8b`	.
16dJJ	.	.
16GLL	8dd`	.
16d	.	.
16B	8g`J	.
16dJJ	.	.
=131	=131	=131
16ALL	(4g	.
16d	.	.
16c	.	.
16dJJ	.	.
16ALL	)8f#L	.
16d	.	.
16c	8a`J	.
16dJJ	.	.
=132	=132	=132
(16F#LL)	8cc`L	.
16d	.	.
16A	8ff#`	.
16dJJ	.	.
16F#LL	8aa`	.
16d	.	.
16A	8cc`J	.
16dJJ	.	.
!!LO:LB:g=z
=133	=133	=133
16GLL	(4cc	.
16d	.	.
16B	.	.
16dJJ	.	.
16GLL	8bL)	.
16d	.	.
16B	8g`J	.
16dJJ)	.	.
=134	=134	=134
(16CLL	8cc`L	.
16G	.	.
16E	8ee`	.
16GJJ	.	.
16CLL	8gg`	.
16G	.	.
16E	8ee`J	.
16GJJ	.	.
=135	=135	=135
4BB)	(8ddL	.
.	16ggL	.
.	16bbJJ	.
8r	8ddd`)	.
8BB	(8b 8dd	.
=136	=136	=136
.	(16qqb 16qqddP/	.
(4C	8a 8cc)/	.
.	4g 4b	.
4D	.	.
.	8f# 8a	.
=137	=137	=137
4G	4g)	.
8GG)	8r	.
16e>LL	8rff	p
16g#>JJ	.	.
=138	=138	=138
16b>	16raa	.
16re>	16ddLL	.
8re>	16gg#	.
.	16bbJJ	.
8re>	8ddd`L	.
8g#>	8b` 8dd`J	.
=139	=139	=139
(4a>	4b (4dd	.
8A)	8a 8cc)	.
8r	16cccLL>	.
.	16aaJJ	.
!!LO:LB:g=z
=140	=140	=140
8rg>	16ff#LL	.
.	16ccJJ	.
16a>LL	8rff	.
16f#>JJ	.	.
8d>`L	8raa	.
8f#>`J	8a` 8cc`	.
=141	=141	=141
(4g>	(4a	.
8G)	8g 8b)	.
8B	8dd`	.
=142	=142	=142
4c	(16eeLL	mf
.	16cc	.
.	16b	.
.	16aJJ	.
8r	16g#LL<	.
.	16a	.
(8c	16ee	.
.	16aJJ	.
=143	=143	=143
4d)	16ff#LL	.
.	16dd	.
.	16cc	.
.	16bJJ	.
8r	16a#LL	.
.	16b	.
(8d	16ff#	.
.	16bJJ	.
=144	=144	=144
4e	16ggLL	.
.	16ee	.
.	16dd	.
.	16ccJJ	.
8f#L	16aaLL	.
.	16cc	.
8gJ	16gg	.
.	16bJJ	.
=145	=145	=145
*^	*	*
4g	4.d	4bt	.
8f#)	.	8a)	.
8r	8r	8d`>	.
*v	*v	*	*
=146	=146	=146
(16GLL	8g`L	f
16d	.	.
16B	8b`	.
16dJJ	.	.
16GLL	8dd`	.
16d	.	.
16B	8g`J	.
16dJJ	.	.
!!LO:LB:g=z
=147	=147	=147
16ALL	(4g	.
16d	.	.
16c	.	.
16dJJ	.	.
16ALL	8f#L)	.
16d	.	.
16c	8a`J	.
16dJJ	.	.
=148	=148	=148
(16F#LL)	8cc`L	.
16d	.	.
16A	8ff#`	.
16dJJ	.	.
16F#LL	8aa`	.
16d	.	.
16A	8cc`J	.
16dJJ	.	.
=149	=149	=149
16GLL	(4cc	.
16d	.	.
16B	.	.
16dJJ	.	.
16GLL	8bL)	.
16d	.	.
16B	8g`J	.
16dJJ)	.	.
=150	=150	=150
(16CLL	8cc`L	ff
16G	.	.
16E	8ee`	.
16GJJ	.	.
16CLL	8gg`	.
16G	.	.
16E	8ee`J	.
16GJJ	.	.
=151	=151	=151
4BB)	(8ddL	.
.	16ggL	.
.	16bbJJ	.
8r	8ddd`)	.
(<8BB	(8b 8dd	.
=152	=152	=152
.	(16qqb/ 16qqdd/	.
4C	8a/ 8cc/)	>
.	4g 4b	.
4D/	.	.
.	8c 8f# 8a	]]
=153	=153	=153
4GG) 4G	4B 4d 4g)	.
8r	8r	.
==	==	==
*-	*-	*-
!!!RDF**kern: > = above
!!!RDF**kern: < = below
!!!RDF**dynam: > = dim.
!!!RDF**kern: N = linked
!!!ONB: linked (cross-staff slurs not encoded)
!!!PPR: Universal Edition 1-4
!!!PTL: Haydn Piano Sonatas, Vol. 1, No. 1
!!!YOY: 1901
!!!ONB: Stich und Druck von Jos. Eberle & Co. Wien VII. Seidengasse 3-9
!!!ONM-ue: I:1.3
!!!YEC: 2021 Craig Stuart Sapp
!!!YEM: Licence: (CC BY-NC-SA 4.0) https://creativecommons.org/licenses/by-nc-sa/4.0
!!!YER: 2021
!!!ENC: Craig Stuart Sapp
!!!END: 2008/07/03/
!!!EED: Craig Stuart Sapp
!!!EEV: 2021/02/01
!!!YEC: 2021 Craig Stuart Sapp
!!!URL: https://github.com/craigsapp/haydn-keyboard-sonatas
!!!URL-vhv: https://verovio.humdrum.org?file=haydn/sonatas/sonata42-3.krn
!!!URL-pdf: https://github.com/craigsapp/haydn-keyboard-sonatas/raw/master/reference-edition/sonata42-3.pdf
!!!title: @{OTL}, mvmt. @{OMV} (@{SCT}), UE @{ONM-ue}
